X:2
T:Muineira de Casu
R:muineira
D:L\'unasa
O:Galicia
Z:id:hn-muineira-2
M:6/8
L:1/8
K:A
AB/c/d |: efe dcd | e2e Acd | efe dcB | c2A Acd |
efe dcd | f2e Acd | efe dBc |1 A2E Acd :|2 A3 a2f ||
|: ecd edf | edc Acd | efe dcd | f2e a2f |
ecd edf | edc Acd | e2e dBc |1 A3 a2f :|2 A3 ABc ||
|: d3 dcd | e2e ABc | d2d dcB | c2A ABc |
d2d dcd | f2e Acd | efe dBc |1 A2A ABc :|2 A2A Acd ||

